Costumes/D-story-1.svg

<?xml version="1.0" encoding="utf-8"?>
<!-- Generator: Adobe Illustrator 18.0.0, SVG Export Plug-In . SVG Version: 6.00 Build 0)  -->
<!DOCTYPE svg PUBLIC "-//W3C//DTD SVG 1.1//EN" "http://www.w3.org/Graphics/SVG/1.1/DTD/svg11.dtd">
<svg version="1.1" id="Layer_2" xmlns="http://www.w3.org/2000/svg" xmlns:xlink="http://www.w3.org/1999/xlink" x="0px" y="0px"
	 viewBox="0 0 51.5 52.7" enable-background="new 0 0 51.5 52.7" xml:space="preserve">
<g>
	<path fill="#53AD4E" d="M49,13.9c-0.6-1.6-1.5-3.2-2.5-4.7c-2-2.8-4.7-4.7-7.7-6.2c-3.2-1.6-6.6-2.6-10.2-2.7
		C22.3,0.2,16,0.1,9.7,0c-1,0-2,0.1-3.1,0.3c-0.3,0-0.8,0.2-1,0.4C3.8,2.3,2.1,4,0.3,5.7C0.2,5.8,0.2,5.9,0.2,6.1
		C0.1,6.9,0,7.8,0,8.6c0,0.2,0.2,0.5,0.4,0.5c1.2,0.1,2.5,0.2,3.7,0.1c1.3-0.1,1.7,0.4,1.5,1.6c-0.1,0.7-0.1,1.4-0.1,2.1
		c0,1.1,0.2,2.2,0.2,3.3c-0.1,1.7-0.4,3.5-0.4,5.2c-0.1,4.7-0.1,9.3-0.1,14c0,3.1,0.1,6.2,0.2,9.2c0.1,1.1-0.3,1.8-1.2,2.4
		c-1.2,0.7-2.2,1.6-3.3,2.5c-0.2,0.2-0.4,0.5-0.4,0.8c0,0.5,0.1,1.1,0.2,1.6c0.1,0.5,0.2,0.7,0.8,0.7c1.5-0.1,3-0.2,4.5-0.3
		c2.9-0.1,5.7-0.2,8.6-0.2c3.1,0,6.2,0.2,9.6,0.2c1.2-0.3,2.8-0.7,4.3-1.2c2-0.8,4.1-1.7,6-2.8c2.6-1.7,5.2-3.5,7.6-5.5
		c2.7-2.1,5.2-4.5,6.6-7.7c1.2-2.7,2.3-5.4,2.5-8.4c0.1-1.2,0.4-2.4,0.3-3.5C51.2,20,50.2,16.9,49,13.9z M1.5,5.5
		C2.8,4.4,4,3.2,5.3,2.1c0.2-0.2,0.3-0.4,0.5-0.5C6,2.5,6,3.2,5.2,3.9c-1.3,1-2.5,2.3-3.7,3.4C1.3,7.4,1.1,7.6,0.8,7.9
		C0.4,6.3,0.5,6.3,1.5,5.5z M4.3,8.5c-1,0.1-2,0.2-3,0.2c0-0.1-0.1-0.2-0.1-0.3c1-0.9,1.9-1.8,2.8-2.7c0.7-0.7,1.6-1.3,2.2-2
		C6.9,2.9,7.8,3,8.7,3c0.8,0,1.2,0.5,1.2,1.3c0,1.3,0,2.5,0,3.8c0,2.4,0,4.9,0,7.3c0,2.5,0.3,4.9,0.3,7.4c0,5-0.2,10.1-0.2,15.2
		c0,1.3,0,2.7,0.1,4c0.1,2.1-0.3,2.8-2.4,3.2c-0.5,0.1-1.1,0.2-1.6,0.3c0-0.1-0.1-0.3-0.1-0.4C6,41.1,5.9,37.1,5.9,33
		c0-3.8,0-7.6,0.1-11.4c0-1.8,0.4-3.6,0.4-5.4c0-1.4-0.2-2.8-0.3-4.2c0-0.5,0-1,0.1-1.5C6.3,9,5.8,8.4,4.3,8.5z M1.3,51.7
		c-0.4-1.3-0.4-1.4,0.6-2.1c1.4-1.1,2.9-2.1,4.3-3.2c0.3,0.6,0.3,1.1-0.2,1.5C4.4,49.1,2.9,50.4,1.3,51.7z M31.4,49.3
		c-3.1,1.6-6.5,2.3-10,2.4c-3.9,0-7.8-0.1-11.8-0.1c-2.4,0-4.8,0.2-7.3,0.3c1.1-0.9,2.1-1.7,3.1-2.6c0.4-0.3,0.8-0.5,1-0.9
		c0.5-0.7,1.3-0.9,2.1-0.9c1.6,0,3.2-0.1,4.9-0.2c4,0,7.9-0.1,11.8-0.1c1.4,0,2.7,0.1,4.1,0.1c2,0.1,3.9,0.1,5.8-0.6
		c0,0.1,0.1,0.2,0.1,0.2C34,47.8,32.7,48.6,31.4,49.3z M28.3,44.6c-2.9,0.1-5.8,0-8.8,0c-0.3,0-0.6,0-0.9-0.1
		c-1-0.3-1.2-0.5-1.2-1.6c0.1-6.4,0.2-12.7,0.2-19.1c0-4.9-0.1-9.7-0.2-14.6V8.8c3.1,0,6.1,0.1,9.2,0.1c2.3,0,4.3,0.5,6.2,1.9
		c1.5,1.2,3.3,2.3,4.3,4c1,1.8,2,3.8,2.7,5.8c0.4,1.3,0.4,2.8,0.4,4.2c-0.1,2.7-0.1,5.5-0.6,8.2c-0.5,3-1.6,6-3.7,8.3
		C33.7,43.4,31.2,44.5,28.3,44.6z M44,24.7c-0.3,2.2-0.6,4.4-1,6.6c-0.1,0.5-0.3,1.1-0.5,1.5c-1.4,2.8-2.7,5.6-4.8,7.8
		c-0.2,0.2-0.4,0.4-0.6,0.6c-0.1,0.1-0.2,0.1-0.2,0.2c-0.1,0-0.1-0.1-0.2-0.1c0.2-0.3,0.3-0.6,0.5-0.9c0.5-0.8,1-1.7,1.4-2.5
		c2.2-4.6,2.7-9.5,2.3-14.4c-0.1-1.8-0.6-3.6-1-5.3c-0.2-0.7-0.6-1.3-1-1.9c-1.1-1.6-2.1-3.3-3.5-4.6C33.8,10.3,32,9,29.9,8.5
		c-2.8-0.7-5.7-0.2-8.5-0.3c-1.4,0-2.7,0-4,0c0-1.2,0-2.2,0-3.2c0-1.1,0.9-2,2.1-2c4.2-0.1,8.4-0.6,12.5,0.7c3.2,1,6,2.8,7.6,5.9
		c1.3,2.5,2.6,4.9,3.6,7.5C44.1,19.5,44.3,22.1,44,24.7z"/>
	<path fill="#FFFFFF" d="M44,24.7c-0.3,2.2-0.6,4.4-1,6.6c-0.1,0.5-0.3,1.1-0.5,1.5c-1.4,2.8-2.7,5.6-4.8,7.8
		c-0.2,0.2-0.4,0.4-0.6,0.6c-0.1,0.1-0.2,0.1-0.2,0.2c-0.1,0-0.1-0.1-0.2-0.1c0.2-0.3,0.3-0.6,0.5-0.9c0.5-0.8,1-1.7,1.4-2.5
		c2.2-4.6,2.7-9.5,2.3-14.4c-0.1-1.8-0.6-3.6-1-5.3c-0.2-0.7-0.6-1.3-1-1.9c-1.1-1.6-2.1-3.3-3.5-4.6C33.8,10.3,32,9,29.9,8.5
		c-2.8-0.7-5.7-0.2-8.5-0.3c-1.4,0-2.7,0-4,0c0-1.2,0-2.2,0-3.2c0-1.1,0.9-2,2.1-2c4.2-0.1,8.4-0.6,12.5,0.7c3.2,1,6,2.8,7.6,5.9
		c1.3,2.5,2.6,4.9,3.6,7.5C44.1,19.5,44.3,22.1,44,24.7z"/>
	<path fill="#FFFFFF" d="M35.3,47.1c-1.3,0.7-2.5,1.6-3.9,2.2c-3.1,1.6-6.5,2.3-10,2.4c-3.9,0-7.8-0.1-11.8-0.1
		c-2.4,0-4.8,0.2-7.3,0.3c1.1-0.9,2.1-1.7,3.1-2.6c0.4-0.3,0.8-0.5,1-0.9c0.5-0.7,1.3-0.9,2.1-0.9c1.6,0,3.2-0.1,4.9-0.2
		c4,0,7.9-0.1,11.8-0.1c1.4,0,2.7,0.1,4.1,0.1c2,0.1,3.9,0.1,5.8-0.6C35.2,46.9,35.2,47,35.3,47.1z"/>
	<path fill="#FFFFFF" d="M6,47.8c-1.6,1.3-3.1,2.6-4.7,3.9c-0.4-1.3-0.4-1.4,0.6-2.1c1.4-1.1,2.9-2.1,4.3-3.2
		C6.6,46.9,6.5,47.4,6,47.8z"/>
	<path fill="#FFFFFF" d="M5.2,3.9c-1.3,1-2.5,2.3-3.7,3.4C1.3,7.4,1.1,7.6,0.8,7.9C0.4,6.3,0.5,6.3,1.5,5.5C2.8,4.4,4,3.2,5.3,2.1
		c0.2-0.2,0.3-0.4,0.5-0.5C6,2.5,6,3.2,5.2,3.9z"/>
	<path fill="#FFFFFF" d="M10.1,42.1c0.1,2.1-0.3,2.8-2.4,3.2c-0.5,0.1-1.1,0.2-1.6,0.3c0-0.1-0.1-0.3-0.1-0.4
		C6,41.1,5.9,37.1,5.9,33c0-3.8,0-7.6,0.1-11.4c0-1.8,0.4-3.6,0.4-5.4c0-1.4-0.2-2.8-0.3-4.2c0-0.5,0-1,0.1-1.5
		c0.1-1.5-0.4-2.1-1.9-2c-1,0.1-2,0.2-3,0.2c0-0.1-0.1-0.2-0.1-0.3c1-0.9,1.9-1.8,2.8-2.7c0.7-0.7,1.6-1.3,2.2-2
		C6.9,2.9,7.8,3,8.7,3c0.8,0,1.2,0.5,1.2,1.3c0,1.3,0,2.5,0,3.8c0,2.4,0,4.9,0,7.3c0,2.5,0.3,4.9,0.3,7.4c0,5-0.2,10.1-0.2,15.2
		C10,39.4,10,40.7,10.1,42.1z"/>
</g>
</svg>

<?xml version="1.0" encoding="UTF-8" standalone="no"?>
<!-- Generator: Adobe Illustrator 18.0.0, SVG Export Plug-In . SVG Version: 6.00 Build 0)  -->

<svg
   version="1.1"
   id="Layer_2"
   x="0px"
   y="0px"
   viewBox="0 0 51.520126 52.599998"
   enable-background="new 0 0 51.5 52.7"
   xml:space="preserve"
   sodipodi:docname="D-story-1.svg"
   width="51.520126"
   height="52.599998"
   xmlns:inkscape="http://www.inkscape.org/namespaces/inkscape"
   xmlns:sodipodi="http://sodipodi.sourceforge.net/DTD/sodipodi-0.dtd"
   xmlns="http://www.w3.org/2000/svg"
   xmlns:svg="http://www.w3.org/2000/svg"><defs
   id="defs19" /><sodipodi:namedview
   id="namedview17"
   pagecolor="#ffffff"
   bordercolor="#000000"
   borderopacity="0.25"
   inkscape:showpageshadow="2"
   inkscape:pageopacity="0.0"
   inkscape:pagecheckerboard="0"
   inkscape:deskcolor="#d1d1d1" />
<g
   id="g14">
	<path
   fill="#53ad4e"
   d="M 49,13.9 C 48.4,12.3 47.5,10.7 46.5,9.2 44.5,6.4 41.8,4.5 38.8,3 35.6,1.4 32.2,0.4 28.6,0.3 22.3,0.2 16,0.1 9.7,0 8.7,0 7.7,0.1 6.6,0.3 6.3,0.3 5.8,0.5 5.6,0.7 3.8,2.3 2.1,4 0.3,5.7 0.2,5.8 0.2,5.9 0.2,6.1 0.1,6.9 0,7.8 0,8.6 c 0,0.2 0.2,0.5 0.4,0.5 1.2,0.1 2.5,0.2 3.7,0.1 1.3,-0.1 1.7,0.4 1.5,1.6 -0.1,0.7 -0.1,1.4 -0.1,2.1 0,1.1 0.2,2.2 0.2,3.3 -0.1,1.7 -0.4,3.5 -0.4,5.2 -0.1,4.7 -0.1,9.3 -0.1,14 0,3.1 0.1,6.2 0.2,9.2 C 5.5,45.7 5.1,46.4 4.2,47 3,47.7 2,48.6 0.9,49.5 0.7,49.7 0.5,50 0.5,50.3 c 0,0.5 0.1,1.1 0.2,1.6 0.1,0.5 0.2,0.7 0.8,0.7 1.5,-0.1 3,-0.2 4.5,-0.3 2.9,-0.1 5.7,-0.2 8.6,-0.2 3.1,0 6.2,0.2 9.6,0.2 1.2,-0.3 2.8,-0.7 4.3,-1.2 2,-0.8 4.1,-1.7 6,-2.8 2.6,-1.7 5.2,-3.5 7.6,-5.5 2.7,-2.1 5.2,-4.5 6.6,-7.7 1.2,-2.7 2.3,-5.4 2.5,-8.4 0.1,-1.2 0.4,-2.4 0.3,-3.5 C 51.2,20 50.2,16.9 49,13.9 Z M 1.5,5.5 C 2.8,4.4 4,3.2 5.3,2.1 5.5,1.9 5.6,1.7 5.8,1.6 6,2.5 6,3.2 5.2,3.9 3.9,4.9 2.7,6.2 1.5,7.3 1.3,7.4 1.1,7.6 0.8,7.9 0.4,6.3 0.5,6.3 1.5,5.5 Z m 2.8,3 c -1,0.1 -2,0.2 -3,0.2 C 1.3,8.6 1.2,8.5 1.2,8.4 2.2,7.5 3.1,6.6 4,5.7 4.7,5 5.6,4.4 6.2,3.7 6.9,2.9 7.8,3 8.7,3 c 0.8,0 1.2,0.5 1.2,1.3 0,1.3 0,2.5 0,3.8 0,2.4 0,4.9 0,7.3 0,2.5 0.3,4.9 0.3,7.4 0,5 -0.2,10.1 -0.2,15.2 0,1.3 0,2.7 0.1,4 0.1,2.1 -0.3,2.8 -2.4,3.2 C 7.2,45.3 6.6,45.4 6.1,45.5 6.1,45.4 6,45.2 6,45.1 6,41.1 5.9,37.1 5.9,33 5.9,29.2 5.9,25.4 6,21.6 6,19.8 6.4,18 6.4,16.2 6.4,14.8 6.2,13.4 6.1,12 6.1,11.5 6.1,11 6.2,10.5 6.3,9 5.8,8.4 4.3,8.5 Z m -3,43.2 C 0.9,50.4 0.9,50.3 1.9,49.6 3.3,48.5 4.8,47.5 6.2,46.4 6.5,47 6.5,47.5 6,47.9 4.4,49.1 2.9,50.4 1.3,51.7 Z m 30.1,-2.4 c -3.1,1.6 -6.5,2.3 -10,2.4 -3.9,0 -7.8,-0.1 -11.8,-0.1 -2.4,0 -4.8,0.2 -7.3,0.3 1.1,-0.9 2.1,-1.7 3.1,-2.6 0.4,-0.3 0.8,-0.5 1,-0.9 0.5,-0.7 1.3,-0.9 2.1,-0.9 1.6,0 3.2,-0.1 4.9,-0.2 4,0 7.9,-0.1 11.8,-0.1 1.4,0 2.7,0.1 4.1,0.1 2,0.1 3.9,0.1 5.8,-0.6 0,0.1 0.1,0.2 0.1,0.2 -1.2,0.9 -2.5,1.7 -3.8,2.4 z m -3.1,-4.7 c -2.9,0.1 -5.8,0 -8.8,0 -0.3,0 -0.6,0 -0.9,-0.1 -1,-0.3 -1.2,-0.5 -1.2,-1.6 0.1,-6.4 0.2,-12.7 0.2,-19.1 0,-4.9 -0.1,-9.7 -0.2,-14.6 V 8.8 c 3.1,0 6.1,0.1 9.2,0.1 2.3,0 4.3,0.5 6.2,1.9 1.5,1.2 3.3,2.3 4.3,4 1,1.8 2,3.8 2.7,5.8 0.4,1.3 0.4,2.8 0.4,4.2 -0.1,2.7 -0.1,5.5 -0.6,8.2 -0.5,3 -1.6,6 -3.7,8.3 -2.2,2.1 -4.7,3.2 -7.6,3.3 z M 44,24.7 c -0.3,2.2 -0.6,4.4 -1,6.6 -0.1,0.5 -0.3,1.1 -0.5,1.5 -1.4,2.8 -2.7,5.6 -4.8,7.8 -0.2,0.2 -0.4,0.4 -0.6,0.6 -0.1,0.1 -0.2,0.1 -0.2,0.2 -0.1,0 -0.1,-0.1 -0.2,-0.1 0.2,-0.3 0.3,-0.6 0.5,-0.9 0.5,-0.8 1,-1.7 1.4,-2.5 2.2,-4.6 2.7,-9.5 2.3,-14.4 -0.1,-1.8 -0.6,-3.6 -1,-5.3 -0.2,-0.7 -0.6,-1.3 -1,-1.9 C 37.8,14.7 36.8,13 35.4,11.7 33.8,10.3 32,9 29.9,8.5 27.1,7.8 24.2,8.3 21.4,8.2 c -1.4,0 -2.7,0 -4,0 0,-1.2 0,-2.2 0,-3.2 0,-1.1 0.9,-2 2.1,-2 4.2,-0.1 8.4,-0.6 12.5,0.7 3.2,1 6,2.8 7.6,5.9 1.3,2.5 2.6,4.9 3.6,7.5 0.9,2.4 1.1,5 0.8,7.6 z"
   id="path2" />
	<path
   fill="#ffffff"
   d="m 44,24.7 c -0.3,2.2 -0.6,4.4 -1,6.6 -0.1,0.5 -0.3,1.1 -0.5,1.5 -1.4,2.8 -2.7,5.6 -4.8,7.8 -0.2,0.2 -0.4,0.4 -0.6,0.6 -0.1,0.1 -0.2,0.1 -0.2,0.2 -0.1,0 -0.1,-0.1 -0.2,-0.1 0.2,-0.3 0.3,-0.6 0.5,-0.9 0.5,-0.8 1,-1.7 1.4,-2.5 2.2,-4.6 2.7,-9.5 2.3,-14.4 -0.1,-1.8 -0.6,-3.6 -1,-5.3 -0.2,-0.7 -0.6,-1.3 -1,-1.9 C 37.8,14.7 36.8,13 35.4,11.7 33.8,10.3 32,9 29.9,8.5 27.1,7.8 24.2,8.3 21.4,8.2 c -1.4,0 -2.7,0 -4,0 0,-1.2 0,-2.2 0,-3.2 0,-1.1 0.9,-2 2.1,-2 4.2,-0.1 8.4,-0.6 12.5,0.7 3.2,1 6,2.8 7.6,5.9 1.3,2.5 2.6,4.9 3.6,7.5 0.9,2.4 1.1,5 0.8,7.6 z"
   id="path4" />
	<path
   fill="#ffffff"
   d="m 35.3,47.1 c -1.3,0.7 -2.5,1.6 -3.9,2.2 -3.1,1.6 -6.5,2.3 -10,2.4 -3.9,0 -7.8,-0.1 -11.8,-0.1 -2.4,0 -4.8,0.2 -7.3,0.3 1.1,-0.9 2.1,-1.7 3.1,-2.6 0.4,-0.3 0.8,-0.5 1,-0.9 0.5,-0.7 1.3,-0.9 2.1,-0.9 1.6,0 3.2,-0.1 4.9,-0.2 4,0 7.9,-0.1 11.8,-0.1 1.4,0 2.7,0.1 4.1,0.1 2,0.1 3.9,0.1 5.8,-0.6 0.1,0.2 0.1,0.3 0.2,0.4 z"
   id="path6" />
	<path
   fill="#ffffff"
   d="M 6,47.8 C 4.4,49.1 2.9,50.4 1.3,51.7 0.9,50.4 0.9,50.3 1.9,49.6 3.3,48.5 4.8,47.5 6.2,46.4 6.6,46.9 6.5,47.4 6,47.8 Z"
   id="path8" />
	<path
   fill="#ffffff"
   d="M 5.2,3.9 C 3.9,4.9 2.7,6.2 1.5,7.3 1.3,7.4 1.1,7.6 0.8,7.9 0.4,6.3 0.5,6.3 1.5,5.5 2.8,4.4 4,3.2 5.3,2.1 5.5,1.9 5.6,1.7 5.8,1.6 6,2.5 6,3.2 5.2,3.9 Z"
   id="path10" />
	<path
   fill="#ffffff"
   d="M 10.1,42.1 C 10.2,44.2 9.8,44.9 7.7,45.3 7.2,45.4 6.6,45.5 6.1,45.6 6.1,45.5 6,45.3 6,45.2 6,41.1 5.9,37.1 5.9,33 5.9,29.2 5.9,25.4 6,21.6 6,19.8 6.4,18 6.4,16.2 6.4,14.8 6.2,13.4 6.1,12 6.1,11.5 6.1,11 6.2,10.5 6.3,9 5.8,8.4 4.3,8.5 3.3,8.6 2.3,8.7 1.3,8.7 1.3,8.6 1.2,8.5 1.2,8.4 2.2,7.5 3.1,6.6 4,5.7 4.7,5 5.6,4.4 6.2,3.7 6.9,2.9 7.8,3 8.7,3 c 0.8,0 1.2,0.5 1.2,1.3 0,1.3 0,2.5 0,3.8 0,2.4 0,4.9 0,7.3 0,2.5 0.3,4.9 0.3,7.4 0,5 -0.2,10.1 -0.2,15.2 0,1.4 0,2.7 0.1,4.1 z"
   id="path12" />
</g>
</svg>
